X: 1
T: the Trip to Pakistan   [Em]
C: Niall Kenny
D: The Tannahill Weavers
Z: Gordon Turnbull, gturnbull:oblique-design.demon.co.uk
S: Andrew Kuntz <AIKuntz:aol.com> scots-l 2000-11-28
N: TRIP TO PAKISTAN. Scottish, Reel. E Minor. Composed by Lanarkshire flute
N: player Niall Kenny. The tune has entered bagpipe repertoire and can be heard
N: sometimes in competitions.
R: Reel
L: 1/8
%Q: 350
M: C
K: Em
|: EGBE ~G3 B | A2AG FGAF | EGBE ~G3 B | AGFG ~E3 B :|
[| EGBE  c3 A | B2BA BAGB | EGBE  c3 A | BAGB ~A3 B |
|  EGBE  c2cA | B2BA BAGB | EGBE  cBAc | BAGB ~A3 B |]
|: FGBF  GBFB | EFGE FGEG | DFAD  FADA | AGFG ~E3 B :|

%%sep 1 1 500

